X:287
T:Steirer (85.)
C:traditionell
A:Salzkammergut
S:MIDI erhalten von Christian Amon. Nach einer kopie im besitz von Johann Stoeckl eines manuscriptes. Stoeckl(zitiert von Amon): "diese sammlung wurde 1935 im hause der familie Hohenlohe-Schillingfuerst gefunden. Sie wurde von einem der beiden brueder Steinegger 1866 verfasst. Die originale sind im Ausseer Kammerhofmuseum".
M:3/4
L:1/8
K:G
V:1
Bd BG BG | B2 dB dg | e2 cA cA | c2 ec eg |\
d2 BG BG | B2 dB dB | c2 af af | g4 z2 |*
V:2
dg dB dB | d2 gd gb | g2 ec ec | e2 ge gb |\
g2 dB dB | d2 gd gd | e2 c'a c'a | b4 z2 |*
